X:1
T:The Rock That Is Higher Than I
T:The Rock That Is Higher Than I
T:William Gustavus Fischer
T:Erastus Johnson, 1871
T:Public Domain Courtesy of the Cyber Hymnal™
C:William Gustavus Fischer
Z:Public Domain
Z:Courtesy of the Cyber Hymnal™
%%score ( 1 2 ) ( 3 4 )
L:1/8
Q:1/4=108
M:4/4
K:Ab
V:1 treble 
V:2 treble 
V:3 bass 
V:4 bass 
V:1
 (EA) | [Ec]2 [CA][CE] [DF]2 [FA][DF] | [CE]6 [CE]2 | [CE]2 [EA][EB] [Ec]2 [Ed][Ec] | [EB]6 [CA]2 | %5
w: 1.~O *|some- times the sha- dows are|deep, And|rough seems the path to the|goal, And|
w: 2.~O *|some- times how long seems the|day, And|some- times how wear- y my|feet; But|
w: 3.~O *|near to the Rock let me|keep If|bless- ings or sor- rows pre-|vail, Or|
 [Ec]2 [CA][CE] [DF]2 [FA][DF] | [CE]6 [CE]2 | [DF]2 [FA][DF] [DE]2 [DF][DG] | [CA]6 || %9
w: sor- rows, some- times how they|sweep Like|temp- ests down o- ver the|soul.|
w: toil- ing in life’s dust- y|way, The|Rock’s bless- èd sha- dow, how|sweet!|
w: climb- ing the mount- ain way|steep, Or|walk- ing the sha- dow- y|vale.|
"^Refrain" [CA]2 | [EB]2 [EB][EB] [Ec]2 [Ec][Ec] | B6 [EB][EB] | [Ec]2 [Ec][Ee] [Ae]2 [Ec][EA] | %13
w: ||||
w: O|then to the Rock let me|fly To the|Rock that is high- er than|
w: ||||
 B6 (ED) | [CA]2 [EA][EA] [Ac]2 [GB][_Gc] | d6 F[FB] | [EA]2 [DG][CA] [Ec]2 [DB][DB] | [CA]6 |] %18
w: |||||
w: I O *|then to the Rock let me|fly To the|Rock that is high- er than|I!|
w: |||||
V:2
 C2 | x8 | x8 | x8 | x8 | x8 | x8 | x8 | x6 || x2 | x8 | (E2 EE E2) x2 | x8 | (E2 EE E2) x2 | x8 | %15
 (F2 FF F2) x2 | x8 | x6 |] %18
V:3
 [A,,A,]2 | [A,,A,]2 [A,,E,][A,,A,] [D,A,]2 [D,A,][D,A,] | [A,,A,]6 [A,,A,]2 | %3
 [A,,A,]2 [C,A,][E,G,] A,2 [G,B,]A, | [E,G,]6 [A,,E,]2 | %5
 [A,,A,]2 [A,,E,][A,,A,] [D,A,]2 [D,A,][D,A,] | [A,,A,]6 [A,,A,]2 | %7
 [D,A,]2 [D,A,][D,A,] [E,G,]2 [E,A,][E,B,] | [A,,A,]6 || A,2 | [E,G,]2 [E,G,][E,G,] A,2 A,A, | %11
 ([E,G,]2 [E,G,][E,G,] [E,G,]2) [E,G,][E,G,] | A,2 A,[A,B,] [A,C]2 [A,,A,][C,A,] | %13
 ([E,G,]2 [E,G,][E,G,][E,G,][D,B,]) ([C,A,][B,,G,]) | [A,,A,]2 [A,,C][A,,C] [A,E]2 A,A, | %15
 ([D,A,]2 [D,A,][D,A,] [D,A,]2) [D,A,][D,D] | [E,C]2 [E,B,][E,A,] [E,A,]2 [E,G,][E,G,] | %17
 [A,,A,]6 |] %18
V:4
 x2 | x8 | x8 | x8 | x8 | x8 | x8 | x8 | x6 || A,2 | x4 A,2 A,A, | x8 | A,2 A, x5 | x8 | x8 | x8 | %16
 x8 | x6 |] %18

